src/images/header-mail-hovered.svg

<svg width="17" height="14" fill="none" xmlns="http://www.w3.org/2000/svg"><path d="M17.0001 2.10651h-.6529c-.2425 0-.5853.34421-.5853.56458v7.98721c0 .2206.3428.5213.5853.5213h.6529v1.8959H11.084v-1.8959h1.2383V2.78361h-.0607L9.36999 13.0755h-2.2387L4.277 2.78361h-.07223v8.39599h1.23826v1.8959H.48999v-1.8959h.63423c.2612 0 .60403-.3007.60403-.5213V2.67109c0-.22037-.34283-.56458-.60403-.56458H.48999V.210635h6.19356L8.717 7.65872h.05595L10.8252.210635h6.1749V2.10651z" fill="#6188FF"/></svg>

<svg width="17" height="14" viewBox="0 0 17 14" fill="none" xmlns="http://www.w3.org/2000/svg">
<path d="M17.0001 2.10651H16.3472C16.1047 2.10651 15.7619 2.45072 15.7619 2.67109V10.6583C15.7619 10.8789 16.1047 11.1796 16.3472 11.1796H17.0001V13.0755H11.084V11.1796H12.3223V2.78361H12.2616L9.36999 13.0755H7.13129L4.277 2.78361H4.20477V11.1796H5.44303V13.0755H0.48999V11.1796H1.12422C1.38542 11.1796 1.72825 10.8789 1.72825 10.6583V2.67109C1.72825 2.45072 1.38542 2.10651 1.12422 2.10651H0.48999V0.210635H6.68355L8.717 7.65872H8.77295L10.8252 0.210635H17.0001V2.10651Z" fill="#6188FF"/>
</svg>
